X:1
T:Due Ninfe e duo Pastori
T:Antonio Morsolino
T:Source : Primo libro delle canzonette a tre voci---Venetia---R.Amadino---1594. Editor : André Vierendeels (13/08/17). 
T:Notes : Original clefs : C1, C1, F4 Dotted brackets indicate black notes 
T:Due Ninfe e duo Pastori
T:©
T:©
T:©
C:Antonio Morsolino
Z:©
%%score [ 1 2 3 ]
L:1/8
Q:1/4=120
M:4/4
K:F
V:1 treble nm="Soprano 1" snm="S 1"
V:2 treble nm="Soprano 2" snm="S 2"
V:3 bass nm="Bass" snm="B"
V:1
 c4 A3 c | B2 A2 G4 | F8 |[M:3/4] c2 B2 G2 | A4 A2 | c2 B2 G2 | A4 A2 | A3 G A2 | c2 =B4 | %9
w: Due Nin- f'e|duo Pa- sto-|ri,|lie- ti scher-|zan- do,|lie- ti scher-|zan- do|tra l'her- bet-|t'e fio-|
w: Coi sguar- di'e|con i ba-|ci,|fa- ce- an|tra- lor,|fa- cean tra-|lor a-|mo- ro- set-|te pa-|
w: Sde- gna- to'all'|ho- r'A- mo-|re,|ne pet- ti|lor ra-|do- pio l'ar-|do- re,|do- pi- o|l'ar- do-|
[M:2/4] c4 :|[M:4/4] d4 c3 c | c2 B2 A4 | A2 d2 c3 c | c2 B2 A4 | A4 A2 B2 | c8 | B2 A2 G4 | %17
w: ri.|Can- ta- van|dol- ce- men-|te, can- ta- van|dol- ce- men-|te, do- po'ha-|ver|nel suo pet-|
w: ci.|So- ven- te|re- pli- can-|do, so- ven- te|re- pli- can-|do, l'un da|l'al-|tro co brac-|
w: re.|Can- tan- do'an-|co- ra lu-|i, can- tan- do'an-|co- ra lu-|i, poi ch'o-|gn'un|vi- de no-|
 G2 c2 A2 d2 | c4 d4 | z2 de f2 de | f4 d4 | z2 AB c2 AB | c4 c4 | B8 | A4 G4- | G4 !fermata!A4 :| %26
w: to, il fo- co'es-|tin- to,|al- le- grez- z'al- le|grez- za,|al- le- grez- z'al- le-|grez- z'A-|mor|è vin-|* to.|
w: ci, il col- lo|cin- to,|al- le- grez- z'al- le-|grez- za,|al- le- grez- z'al- le-|grez- z'A-|mor|è vin-|* to.|
w: va guer- ra ac-|cin- to,|al- le- grez- z'al- le-|grez- za,|al- le- grez- z'al- le-|grez- z'A-|mor|ha vin-|* to.|
V:2
 F4 F3 C | DE F4 E2 | F8 |[M:3/4] A2 G2 E2 | F4 F2 | F2 D2 E2 | F4 F2 | F3 D F2 | E2 D4 | %9
w: Due Nin- f'e|duo Pa- sto- *|ri,|lie- ti scher-|zan- do,|lie- ti scher-|zan- do|tra l'her- bet-|t'e fio-|
w: Coi sguar- di'e|con i ba- *|ci,|fa- ce- an|tra- lor,|fa- cean tra-|lor a-|mo- ro- set-|te pa-|
w: Sde- gna- to'all'|ho- r'A- mo- *|re,|ne pet- ti|lor ra-|do- pio l'ar-|do- re,|do- pi- o|l'ar- do-|
[M:2/4] E4 :|[M:4/4] F4 A3 A | A2 G2 ^F4 | ^F2 B2 A3 A | A2 G2 ^F4 | ^F4 F2 G2 | A8 | G2 F2 E4 | %17
w: ri;|Can- ta- van|dol- ce- men-|te, can- ta- van|dol- ce- men-|te, do- po'ha-|ver|nel suo pet-|
w: ci,|So- ven- te|re- pli- can-|do, so ven te|re- pli- can-|do, l'un da|l'al-|tro co brac-|
w: re,|Can- tan- do'an-|co- ra lu-|i, can- tan- do'an-|co- ra lu-|i, poi ch'o-|gn'un|vi- de no-|
 E2 G2 F2 B2 | A4 B4 | z2 Bc d2 Bc | d4 B4 | z2 FG A2 FG | A4 A4 | G2 F2 E4 | F8 | %25
w: to, il fo- co'es-|tin- to,|al- le- grez- z'al- le-|grez- za,|al- le- grez- z'al- le-|grez- z'A-|mor è vin-||
w: ci, il col- lo|cin- to,|al- le- grez- z'al- le-|grez- za,|al- le- grez- z'al- le-|grez- z'A-|mor è vin-||
w: va guer- ra ac-|cin- do,|al- le- grez- z'al- le-|grez- za,|al- le- grez- z'al- le-|grez- z'A-|moe ha vin-||
 E4 !fermata!F4 :| %26
w: * to.|
w: * to.|
w: * to.|
V:3
 z8 | z8 | z8 |[M:3/4] F,2 B,,2 C,2 | F,,4 F,,2 | A,,2 B,,2 C,2 | F,4 F,2 | F,3 G, F,2 | C,2 G,4 | %9
w: |||lie- ti scher-|zan- do,|lie- ti scher-|zan- do|tra l'her- bet-|te' fio-|
w: |||fa- ce- an|tra- lor,|fa- cean tra-|lor a-|mo- ro- set-|te pa-|
w: |||ne pet- to|lor ra-|do- pio l'ar-|do- re,|do- pi- o|l'ar- do-|
[M:2/4] C,4 :|[M:4/4] B,,4 F,3 F, | F,2 G,2 D,4 | D,2 B,2 F,3 F, | F,2 G,2 D,4 | D,4 D,2 G,2 | %15
w: ri,|Can- ta- van|dol- ce- men-|te, can- ta- van|dol- ce- men-|ten do- po'ha-|
w: ci,|So- ven- te|re- pli- can-|do, so- ven- te|re- pli- van-|do, l'un da|
w: re,|Can- tan- do'an-|co- ra lu-|i, can- tan- do'an-|co- ra lu-|i, poi ch'o-|
 F,8 | B,,2 F,,2 C,4 | C,2 C,2 D,2 B,,2 | F,4 B,,4 | z2 B,,B,, B,,2 B,,B,, | B,,4 B,,4 | %21
w: ver|nel suo pet-|to, il fo- co'es-|tin- to,|al- le- grez- z'al- le-|grez- za,|
w: l'al-|tro co brac-|ci, il col- lo|cin- to,|al- le- grez- z'al- le-|grez- za,|
w: gn'un|vi- de no-|va guer- ra ac-|cin- do,|al- le grez- z'al- le-|grez- za,|
 z2 F,F, F,2 F,F, | F,2 F,,2 A,,4 | B,,4 C,4- | C,8- | C,4 !fermata!F,,4 :| %26
w: al- le- grez- z'al- le-|grez- z'A- mor|è vin-||* to.|
w: al- le- grez- z'al- le-|grez- z'A- mor|è vin-||* to.|
w: al- le- grez- z'al- le-|grez- s'A- mor|ha vin-||* to.|

